build/images/icons/picture.svg

<svg xmlns="http://www.w3.org/2000/svg" width="30" height="30"><path d="M30 23.999c0 .651-.419 1.2-1 1.407v1.683a1.498 1.498 0 01-.5 2.91c-.652 0-1.202-.42-1.408-1.001h-1.684A1.497 1.497 0 0124 29.999c-.652 0-1.202-.42-1.408-1.001h-1.684a1.497 1.497 0 01-1.408 1.001c-.652 0-1.201-.42-1.408-1.001h-1.684A1.497 1.497 0 0115 29.999c-.652 0-1.202-.42-1.408-1.001h-1.684a1.496 1.496 0 01-1.408 1.001c-.652 0-1.202-.42-1.408-1.001H7.408A1.496 1.496 0 016 29.999c-.652 0-1.202-.42-1.408-1.001H2.908A1.497 1.497 0 011.5 29.999a1.498 1.498 0 01-.5-2.91v-1.683c-.581-.207-1-.756-1-1.407 0-.654.419-1.202 1-1.409v-1.683c-.581-.208-1-.757-1-1.409 0-.651.419-1.201 1-1.408v-1.684c-.581-.206-1-.755-1-1.407a1.5 1.5 0 011-1.41v-1.683c-.581-.206-1-.755-1-1.408 0-.652.419-1.202 1-1.407V7.406c-.581-.207-1-.756-1-1.408 0-.652.419-1.202 1-1.408V2.905C.419 2.7 0 2.15 0 1.498A1.5 1.5 0 011.5-.001c.652 0 1.201.417 1.408 1h1.684a1.493 1.493 0 012.816 0h1.684a1.493 1.493 0 012.816 0h1.684c.206-.583.756-1 1.408-1 .652 0 1.201.417 1.408 1h1.684c.207-.583.756-1 1.408-1 .652 0 1.201.417 1.408 1h1.684c.206-.583.756-1 1.408-1 .652 0 1.201.417 1.408 1h1.684c.206-.583.756-1 1.408-1 .828 0 1.5.67 1.5 1.499 0 .652-.419 1.202-1 1.407V4.59c.581.206 1 .756 1 1.408 0 .652-.419 1.201-1 1.408v1.685c.581.205 1 .755 1 1.407 0 .653-.419 1.202-1 1.408v1.683a1.5 1.5 0 011 1.41c0 .652-.419 1.201-1 1.407v1.684c.581.207 1 .757 1 1.408 0 .652-.419 1.201-1 1.409v1.683c.581.207 1 .755 1 1.409zM26 3.997H4v22.001h22V3.997zM13 19.998l7-8.499 4.5 7v5.999h-19l6-5.999 1.5 1.499zm-3-7a3 3 0 110-6 3 3 0 010 6z"/></svg>

<svg 
 xmlns="http://www.w3.org/2000/svg"
 xmlns:xlink="http://www.w3.org/1999/xlink"
 width="30px" height="30px">
<path 
 d="M30.000,23.999 C30.000,24.650 29.581,25.199 29.000,25.406 L29.000,27.089 C29.581,27.296 30.000,27.846 30.000,28.498 C30.000,29.326 29.328,29.999 28.500,29.999 C27.848,29.999 27.298,29.579 27.092,28.998 L25.408,28.998 C25.201,29.579 24.652,29.999 24.000,29.999 C23.348,29.999 22.798,29.579 22.592,28.998 L20.908,28.998 C20.701,29.579 20.152,29.999 19.500,29.999 C18.848,29.999 18.299,29.579 18.092,28.998 L16.408,28.998 C16.201,29.579 15.652,29.999 15.000,29.999 C14.348,29.999 13.798,29.579 13.592,28.998 L11.908,28.998 C11.702,29.579 11.152,29.999 10.500,29.999 C9.848,29.999 9.298,29.579 9.092,28.998 L7.408,28.998 C7.202,29.579 6.652,29.999 6.000,29.999 C5.348,29.999 4.798,29.579 4.592,28.998 L2.908,28.998 C2.701,29.579 2.152,29.999 1.500,29.999 C0.672,29.999 -0.000,29.326 -0.000,28.498 C-0.000,27.846 0.419,27.296 1.000,27.089 L1.000,25.406 C0.419,25.199 -0.000,24.650 -0.000,23.999 C-0.000,23.345 0.419,22.797 1.000,22.590 L1.000,20.907 C0.419,20.699 -0.000,20.150 -0.000,19.498 C-0.000,18.847 0.419,18.297 1.000,18.090 L1.000,16.406 C0.419,16.200 -0.000,15.651 -0.000,14.999 C-0.000,14.347 0.419,13.797 1.000,13.589 L1.000,11.906 C0.419,11.700 -0.000,11.151 -0.000,10.498 C-0.000,9.846 0.419,9.296 1.000,9.091 L1.000,7.406 C0.419,7.199 -0.000,6.650 -0.000,5.998 C-0.000,5.346 0.419,4.796 1.000,4.590 L1.000,2.905 C0.419,2.700 -0.000,2.150 -0.000,1.498 C-0.000,0.669 0.672,-0.001 1.500,-0.001 C2.152,-0.001 2.701,0.416 2.908,0.999 L4.592,0.999 C4.798,0.416 5.348,-0.001 6.000,-0.001 C6.652,-0.001 7.202,0.416 7.408,0.999 L9.092,0.999 C9.298,0.416 9.848,-0.001 10.500,-0.001 C11.152,-0.001 11.702,0.416 11.908,0.999 L13.592,0.999 C13.798,0.416 14.348,-0.001 15.000,-0.001 C15.652,-0.001 16.201,0.416 16.408,0.999 L18.092,0.999 C18.299,0.416 18.848,-0.001 19.500,-0.001 C20.152,-0.001 20.701,0.416 20.908,0.999 L22.592,0.999 C22.798,0.416 23.348,-0.001 24.000,-0.001 C24.652,-0.001 25.201,0.416 25.408,0.999 L27.092,0.999 C27.298,0.416 27.848,-0.001 28.500,-0.001 C29.328,-0.001 30.000,0.669 30.000,1.498 C30.000,2.150 29.581,2.700 29.000,2.905 L29.000,4.590 C29.581,4.796 30.000,5.346 30.000,5.998 C30.000,6.650 29.581,7.199 29.000,7.406 L29.000,9.091 C29.581,9.296 30.000,9.846 30.000,10.498 C30.000,11.151 29.581,11.700 29.000,11.906 L29.000,13.589 C29.581,13.797 30.000,14.347 30.000,14.999 C30.000,15.651 29.581,16.200 29.000,16.406 L29.000,18.090 C29.581,18.297 30.000,18.847 30.000,19.498 C30.000,20.150 29.581,20.699 29.000,20.907 L29.000,22.590 C29.581,22.797 30.000,23.345 30.000,23.999 ZM26.000,3.997 L4.000,3.997 L4.000,25.998 L26.000,25.998 L26.000,3.997 ZM13.000,19.998 L20.000,11.499 L24.500,18.499 L24.500,24.498 L5.500,24.498 L11.500,18.499 L13.000,19.998 ZM10.000,12.998 C8.343,12.998 7.000,11.655 7.000,9.997 C7.000,8.340 8.343,6.998 10.000,6.998 C11.657,6.998 13.000,8.340 13.000,9.997 C13.000,11.655 11.657,12.998 10.000,12.998 Z"/>
</svg>
